public/assests/icons/arrow.svg

<svg width="21" height="8" viewBox="0 0 21 8" fill="none" xmlns="http://www.w3.org/2000/svg">
<path d="M20.3536 4.35355C20.5488 4.15829 20.5488 3.84171 20.3536 3.64645L17.1716 0.464466C16.9763 0.269204 16.6597 0.269204 16.4645 0.464466C16.2692 0.659728 16.2692 0.976311 16.4645 1.17157L19.2929 4L16.4645 6.82843C16.2692 7.02369 16.2692 7.34027 16.4645 7.53553C16.6597 7.7308 16.9763 7.7308 17.1716 7.53553L20.3536 4.35355ZM0 4.5L20 4.5V3.5L0 3.5L0 4.5Z" fill="white"/>
</svg>

<svg width="21" height="8" fill="none" xmlns="http://www.w3.org/2000/svg"><path d="M20.3536 4.35355c.1952-.19526.1952-.51184 0-.7071L17.1716.46447c-.1953-.19527-.5119-.19527-.7071 0-.1953.19526-.1953.51184 0 .7071L19.2929 4l-2.8284 2.82843c-.1953.19526-.1953.51184 0 .7071.1952.19527.5118.19527.7071 0l3.182-3.18198ZM0 4.5h20v-1H0v1Z" fill="#fff"/></svg>
